X:74
T:Pointe au Pic
R:reel
M:4/4
L:1/8
Z:robin.beech@mcgill.ca
K:C
geg | decd BcAB | GGG2 zgeg | decd BcAc | BBB2 zgeg | decd BcAc |
BBB2z g^fg | ag^fg agec | GGG2 zgeg |decd BcAB | GGG2 zgeg |
dece ccBB | AAA2- A2AB | c2Bc d2cd | e2^de a2e2 | g2f2 fGAB |1 c4 z :|2 c4 z2 B2 |:
A3B cBcd | ea2 ea2 ea | ea2 ea2 ea | ea2 ea4 | G3A BGBd | ggg2 zABd |
ggg2 zABd | g^fga g=fed | A3B cBcd | ea2 ea2 ea | ea2 ea2 ea | ea2 ea2b2 |
c'4 c'ef^f | g^fga gecd | egec dfdB | c6 z2 :|
